symbols/web/room_service/materialsymbolsrounded/room_service_gradN25fill1_24px.svg

<svg xmlns="http://www.w3.org/2000/svg" height="24" width="24"><path d="M3.25 18.675q-.4 0-.675-.275t-.275-.65q0-.4.275-.675t.675-.275h17.525q.4 0 .675.275t.275.675q0 .375-.275.65t-.675.275Zm0-2.8v-.925q0-3.1 1.938-5.488 1.937-2.387 4.937-3.037v-.25q0-.775.55-1.325.55-.55 1.325-.55.775 0 1.325.55.55.55.55 1.325v.25q3.05.65 4.975 3.037 1.925 2.388 1.925 5.488v.925Z"/></svg>

<svg xmlns="http://www.w3.org/2000/svg" height="24" width="24"><path d="M3.25 18.675Q2.85 18.675 2.575 18.4Q2.3 18.125 2.3 17.75Q2.3 17.35 2.575 17.075Q2.85 16.8 3.25 16.8H20.775Q21.175 16.8 21.45 17.075Q21.725 17.35 21.725 17.75Q21.725 18.125 21.45 18.4Q21.175 18.675 20.775 18.675ZM3.25 15.875V14.95Q3.25 11.85 5.188 9.462Q7.125 7.075 10.125 6.425V6.175Q10.125 5.4 10.675 4.85Q11.225 4.3 12 4.3Q12.775 4.3 13.325 4.85Q13.875 5.4 13.875 6.175V6.425Q16.925 7.075 18.85 9.462Q20.775 11.85 20.775 14.95V15.875Z"/></svg>
